assets/svg/icon_menu_logout.svg

<svg width="24" height="24" viewBox="0 0 24 24" fill="none" xmlns="http://www.w3.org/2000/svg">
<path d="M17.8008 7.80051C17.8008 6.50051 17.5008 5.30051 16.7008 4.40051C15.9008 3.50051 14.7008 3.00051 13.2008 3.10051H7.60078C6.10078 3.10051 4.90078 3.50051 4.10078 4.40051C3.30078 5.30051 3.00078 6.50051 3.00078 7.80051V16.2005C3.00078 17.6005 3.30078 18.8005 4.10078 19.7005C4.90078 20.5005 6.10078 21.0005 7.60078 21.0005H13.2008C14.7008 21.0005 15.9008 20.6005 16.7008 19.7005C17.5008 18.8005 17.8008 17.5005 17.8008 16.2005" stroke="#0166FF" stroke-width="1.4" stroke-linecap="round"/>
<path d="M22.3984 12H13.3984" stroke="#0166FF" stroke-width="1.35" stroke-linecap="round"/>
<path d="M22.3984 12L19.8984 9.5" stroke="#0166FF" stroke-width="1.35" stroke-linecap="round"/>
<path d="M22.3984 12.0996L19.8984 14.6996" stroke="#0166FF" stroke-width="1.35" stroke-linecap="round"/>
</svg>

<svg xmlns="http://www.w3.org/2000/svg" width="24" height="24" fill="none"><path stroke="#0166FF" stroke-linecap="round" stroke-width="1.4" d="M17.8 7.8c0-1.3-.3-2.5-1.1-3.4s-2-1.4-3.5-1.3H7.6c-1.5 0-2.7.4-3.5 1.3S3 6.5 3 7.8v8.4c0 1.4.3 2.6 1.1 3.5.8.8 2 1.3 3.5 1.3h5.6c1.5 0 2.7-.4 3.5-1.3s1.1-2.2 1.1-3.5"/><path stroke="#0166FF" stroke-linecap="round" stroke-width="1.35" d="M22.398 12h-9M22.398 12l-2.5-2.5M22.398 12.1l-2.5 2.6"/></svg>
